assets/images/web/comments-icon.svg

<svg xmlns:svg="http://www.w3.org/2000/svg" xmlns="http://www.w3.org/2000/svg" version="1.1" width="15.9325" height="15.841249" viewBox="0 0 12.746 12.673">
<path d="m3 12.673 0-4.9510002-1.484 0c-0.836 0-1.516-0.679-1.516-1.515l0-4.691C0 0.67999983 0.68-1.6782036e-7 1.516-1.6782036e-7l9.715 0c0.836 0 1.515 0.67999999782036 1.515 1.51599996782036l0 4.691c0 0.836-0.679 1.515-1.515 1.515l-3.283 0 0.001 0.001L3 12.673zM3.75 10.862 7.418 7.1929998c0.14-0.141 0.331-0.22 0.53-0.22l3.282-0.001c0.422 0 0.766-0.343 0.766-0.765l0-4.691c0-0.422-0.344-0.76599997-0.765-0.76599997l-9.715 0c-0.422 0-0.766 0.34399997-0.766 0.76599997l0 4.691c0 0.422 0.344 0.765 0.766 0.765l1.484 0c0.413 0 0.75 0.337 0.75 0.75l0 3.1400002z" fill="#f60"/>
</svg>

<svg xmlns="http://www.w3.org/2000/svg" viewBox="0 0 12.75 12.67">
  <path d="M3 12.67V7.72H1.52C.68 7.72 0 7.04 0 6.22V1.5C0 .68.68 0 1.52 0h9.7c.85 0 1.53.68 1.53 1.52v4.7c0 .82-.68 1.5-1.52 1.5H7.95L3 12.67zm.75-1.8l3.67-3.68c.14-.15.33-.23.53-.23h3.28c.42 0 .77-.34.77-.76V1.53c0-.43-.35-.77-.77-.77h-9.7c-.44 0-.78.34-.78.77v4.7c0 .4.34.75.77.75H3c.4 0 .75.34.75.75v3.14z" fill="#f60"/>
</svg>
